src/assets/image/logo.svg

<svg width="630" height="122" viewBox="0 0 630 122" fill="none" xmlns="http://www.w3.org/2000/svg">
<path d="M81.9491 4.39474C78.5884 7.75543 77.5543 9.82355 77.5543 13.4428C77.5543 20.1641 80.7858 25.7222 86.0853 27.9196C91.5141 30.2462 96.4259 29.2121 101.079 24.8174C110.515 16.0279 104.311 -5.72205e-06 91.5141 -5.72205e-06C87.3779 -5.72205e-06 85.439 0.904795 81.9491 4.39474Z" fill="#5250D1"/>
<path d="M539.003 59.4585V118.917H551.929H564.725L565.113 103.794L565.501 88.6706L579.073 103.794L592.645 118.917H611.387H630L621.081 109.481C616.04 104.44 607.38 95.392 601.693 89.4461L591.352 78.7178L609.06 61.2681L626.769 43.9476H608.802H590.964L579.073 56.8733C572.481 63.9825 566.535 69.799 566.018 69.799C565.371 69.799 564.854 54.0296 564.854 34.8996V0.000106812H551.929H539.003V59.4585Z" fill="black"/>
<path d="M0 63.3362V118.917H31.0217H62.0435V106.637V94.3579H45.24H28.4366V51.0567V7.75555H14.2183H0V63.3362Z" fill="black"/>
<path d="M131.842 32.3144V43.9476H127.318H122.794V55.5807V67.2139H127.318H131.842V83.7588C131.842 98.3649 132.23 100.95 134.815 105.991C139.598 115.556 150.973 121.502 164.674 121.502H170.62V110.515C170.62 100.562 170.361 99.5282 168.164 99.5282C158.34 99.5282 157.694 96.5553 157.694 55.5807V20.6813H144.768H131.842V32.3144Z" fill="black"/>
<path d="M380.663 42.5257C346.41 51.4445 342.273 102.63 374.458 118.787C382.989 123.053 395.527 122.536 404.446 117.624C408.324 115.427 411.685 113.746 411.943 113.746C412.072 113.746 412.331 114.91 412.331 116.332C412.331 118.787 413.236 118.917 425.257 118.917H438.182V81.4321V43.9475H425.257C412.46 43.9475 412.331 43.9475 412.331 47.0497V50.1519L405.222 46.2742C397.725 42.2672 387.643 40.7161 380.663 42.5257ZM406.514 69.1527C413.882 76.7789 413.623 86.8609 406.256 94.6164C402.636 98.4941 396.174 100.304 391.779 98.8819C386.609 97.3308 381.438 91.6435 379.887 86.3439C378.724 81.9492 378.982 80.0103 380.663 75.357C383.377 68.2479 388.806 64.6287 396.691 64.6287C401.473 64.6287 403.024 65.275 406.514 69.1527Z" fill="black"/>
<path d="M245.589 44.0768C243.779 44.8524 240.806 46.9205 238.867 48.7301L235.248 52.22V48.0838V43.9476H222.322H209.397V81.4322V118.917H222.322H235.248V95.1335C235.248 71.3501 235.248 71.2209 238.609 67.3431C241.97 63.3362 245.46 62.4314 251.793 64.1117C257.48 65.6628 258.514 70.3161 258.514 95.6505V118.917H272.087H285.659V94.3579C285.659 69.9283 285.659 69.6698 288.89 66.5676C292.897 62.4314 298.584 62.4314 303.367 66.4383L306.986 69.5405L307.374 94.2287L307.891 118.917H320.687H333.484V90.7387C333.484 64.1117 333.354 62.3021 330.64 56.8733C328.96 53.7711 325.47 49.5056 322.755 47.3083C318.748 44.0768 316.422 43.3013 309.571 42.9135C299.101 42.2672 295.094 43.8183 288.114 51.3152C285.271 54.4174 282.686 56.8733 282.556 56.6148C282.427 56.3563 281.005 54.4174 279.454 52.0908C275.189 46.0157 267.175 42.655 257.093 42.7843C252.569 42.7843 247.398 43.4305 245.589 44.0768Z" fill="black"/>
<path d="M78.8469 81.4322V118.917H91.7727H104.698V81.4322V43.9476H91.7727H78.8469V81.4322Z" fill="black"/>
<path d="M169.844 46.4034C166.096 48.73 162.864 54.5466 162.864 59.0706C162.864 63.4654 167.13 69.6697 171.524 71.7378C181.09 76.2618 191.301 69.4112 191.301 58.5536C191.301 53.6418 190.655 52.0907 186.906 48.3423C181.736 43.172 176.178 42.5257 169.844 46.4034Z" fill="#5250D1"/>
<path d="M461.448 81.4322V118.917H474.374H487.3V81.4322V43.9476H474.374H461.448V81.4322Z" fill="black"/>
<path d="M500.484 45.6279C484.973 54.2881 497.124 80.0103 512.893 71.8671C518.451 69.0235 520.907 64.8872 520.907 58.4244C520.907 47.696 509.662 40.5868 500.484 45.6279Z" fill="#5250D1"/>
</svg>

<svg xmlns="http://www.w3.org/2000/svg" width="630" height="122" fill="none"><path fill="#5250D1" d="M81.95 4.395c-3.362 3.36-4.396 5.429-4.396 9.048 0 6.721 3.232 12.28 8.531 14.477 5.43 2.326 10.34 1.292 14.994-3.103C110.515 16.027 104.311 0 91.514 0c-4.136 0-6.075.905-9.565 4.395Z"/><path fill="#000" d="M539.003 59.459v59.458h25.722l.388-15.123.388-15.123 13.572 15.123 13.572 15.123H630l-8.919-9.436c-5.041-5.041-13.701-14.089-19.388-20.035l-10.341-10.728 17.708-17.45 17.709-17.32h-35.805l-11.891 12.925c-6.592 7.11-12.538 12.926-13.055 12.926-.647 0-1.164-15.77-1.164-34.9V0h-25.851V59.46ZM0 63.336v55.581h62.044v-24.56H28.437V7.757H0v55.58ZM131.842 32.314v11.634h-9.048v23.266h9.048v16.545c0 14.606.388 17.191 2.973 22.232 4.783 9.565 16.158 15.511 29.859 15.511h5.946v-10.987c0-9.953-.259-10.987-2.456-10.987-9.824 0-10.47-2.973-10.47-43.947v-34.9h-25.852v11.633ZM380.663 42.526c-34.253 8.918-38.39 60.104-6.205 76.261 8.531 4.266 21.069 3.749 29.988-1.163 3.878-2.197 7.239-3.878 7.497-3.878.129 0 .388 1.164.388 2.586 0 2.455.905 2.585 12.926 2.585h12.925v-74.97h-12.925c-12.797 0-12.926 0-12.926 3.103v3.102l-7.109-3.878c-7.497-4.007-17.579-5.558-24.559-3.748Zm25.851 26.627c7.368 7.626 7.109 17.708-.258 25.463-3.62 3.878-10.082 5.688-14.477 4.266-5.17-1.551-10.341-7.239-11.892-12.538-1.163-4.395-.905-6.334.776-10.987 2.714-7.11 8.143-10.728 16.028-10.728 4.782 0 6.333.646 9.823 4.524ZM245.589 44.077c-1.81.775-4.783 2.843-6.722 4.653l-3.619 3.49v-8.272h-25.851v74.969h25.851V95.133c0-23.783 0-23.912 3.361-27.79 3.361-4.007 6.851-4.912 13.184-3.231 5.687 1.55 6.721 6.204 6.721 31.538v23.267h27.145v-24.56c0-24.429 0-24.687 3.231-27.79 4.007-4.136 9.694-4.136 14.477-.129l3.619 3.102.388 24.689.517 24.688h25.593V90.739c0-26.627-.13-28.437-2.844-33.866-1.68-3.102-5.17-7.367-7.885-9.565-4.007-3.231-6.333-4.007-13.184-4.395-10.47-.646-14.477.905-21.457 8.402-2.843 3.102-5.428 5.558-5.558 5.3-.129-.259-1.551-2.198-3.102-4.524-4.265-6.075-12.279-9.436-22.361-9.307-4.524 0-9.695.647-11.504 1.293ZM78.847 81.432v37.485h25.851V43.948H78.847v37.484Z"/><path fill="#5250D1" d="M169.844 46.403c-3.748 2.327-6.98 8.144-6.98 12.668 0 4.394 4.266 10.599 8.66 12.667 9.566 4.524 19.777-2.327 19.777-13.184 0-4.912-.646-6.463-4.395-10.212-5.17-5.17-10.728-5.816-17.062-1.939Z"/><path fill="#000" d="M461.448 81.432v37.485H487.3V43.948h-25.852v37.484Z"/><path fill="#5250D1" d="M500.484 45.628c-15.511 8.66-3.36 34.382 12.409 26.24 5.558-2.844 8.014-6.98 8.014-13.444 0-10.728-11.245-17.837-20.423-12.796Z"/></svg>
